icons/reshape-tool-16.svg

<?xml version="1.0" encoding="UTF-8"?><svg id="icons" xmlns="http://www.w3.org/2000/svg" viewBox="0 0 16 16"><defs><style>.cls-1{fill:none;}.cls-1,.cls-2{stroke-width:0px;}</style></defs><rect class="cls-1" width="16" height="16"/><path class="cls-2" d="M13,8v3h3v-3h-3ZM15,10h-1v-1h1v1ZM13,15h3v-3h-3v3ZM14,13h1v1h-1v-1ZM11,13h1v1h-1v-1ZM9,13h1v1h-1v-1ZM9,7h1v1h-1v-1ZM11,8h1v1h-1v-1ZM7,2h1v14h-1V2ZM3,1H0v3h1v8H0v3h3v-1h3v-1h-3v-1h-1V4h1v-.06573l3,2v-1.20184l-3-2v-1.73242ZM2,14h-1v-1h1v1ZM2,3h-1v-1h1v1Z"/></svg>

<svg xmlns="http://www.w3.org/2000/svg" viewBox="0 0 16 16"><path stroke-width="0" fill="none" d="M0 0h16v16H0z"/><path d="M13 8v3h3V8h-3zm2 2h-1V9h1v1zm-2 5h3v-3h-3v3zm1-2h1v1h-1v-1zm-3 0h1v1h-1v-1zm-2 0h1v1H9v-1zm0-6h1v1H9V7zm2 1h1v1h-1V8zM7 2h1v14H7V2zM3 1H0v3h1v8H0v3h3v-1h3v-1H3v-1H2V4h1v-.066l3 2V4.732l-3-2V1zM2 14H1v-1h1v1zM2 3H1V2h1v1z" stroke-width="0"/></svg>
